X: 195
T: Baharın Zamanı Geldi
C: Dede Efendi
O: Turkey
F: http://compmusic.upf.edu/node/140
N: hicaz--kocekce--aksak--baharin_zamani--dede_efendi
N: makam= hicaz
N: form= kocekce
N: usul= aksak = 9/8
M: 9/8
L: 1/16
K: C _7/8B ^f ^c 
Q: 1/4=192
%%MIDI tuningsystem comma53
d4 e4 egfe e6 | d4a4g2 f2ag f2fe  | e6d2 e2f2 ag=fe dc | 
w:  Ba ha rın   |  za ma nı  *  gel  |  di  *  a  ca nım    | 
d4e4eg fee6  | d4 a4 g2f2 agf2 fe | e6 d2e2 f2ag =fedc  | 
w:  Ba ha rın   |  za ma nı  *  gel  |  di  *  a  ca nım    | 
d4 e2f2 g2a2 =f2e2 d2 | c2 BAe2 dcc2 B2dc B2BA  | 
w:  *  Yav ru  cey  |  lan  *  *  gel  *  *  gi *  de  | 
A6=b=c' baag a4 gb | a4a4g2 f2=c'2 =b2a2  | \
w:  lim   SAZ  |  *  Yol la *  rı mız   | 
a2g2 g2f2 f2ef g4 fe | 
w:  ye *  şil *  len *  *  di    | 
d4a4g2 f2=c'2 =b2a2  | a2g2 g2f2 f2ef g4 fe | \
w:  *  Yol la *  rı mız   |  ye *  şil *  len *  *  di    | 
d4e2 f2g2 a2=f2 e2d2  | 
w:  *  Cey *  lan   | 
e2=f2 e2f2 a2g2 f2e2 dc | d4e2 =f2fe d2dc BAB2  | 
w:  cey *  *  *  lan   |  *  gi de lim  *  *  cey  | 
c6d2 cBAB c4 BA | A4e2 f2g2 a2=f2 e2d2  | \
w:  lan  *  cey *  *  *  lan    |  *  Yav ru  cey  | 
c2BA e2dc c2B2 dcB2 BA | 
w:  lan  *  *  gel  *  *  gi *  de  | 
A6 gfe3def ge=fd  | e4 A2gf e3d efge =fd | 
w:  lim   ARANAĞME  |   | 
e4A2 gfe3def gbag  | =fed2 cdef efed cdcB BA | 
w:   |   | 
A6 gfe3def ge=fd  | e4 A2gf e3d efge =fd | 
w:  lim   ARANAĞME  |   | 
e4A2 gfe3def gbag  | =fed2 cdef efed cdcB BA | 
w:   |   | 
A6 d2c2 d2e6  | d4 e4 egfe e6 | d4a4g2 f2ag f2fe  | 
w:  SAZ  |  Ba ha rın   |  za ma nı  *  gel  | 
e6d2 e2f2 ag=fe dc | d4e4eg fee6  | d4 a4 g2f2 agf2 fe | 
w:  di  *  a  ca nım    |  Ba ha rın   |  za ma nı  *  gel  | 
e6 d2e2 f2ag =fedc  | d4 e2f2 g2a2 =f2e2 d2 | \
w:  di  *  a  ca nım    |  *  Yav ru  cey  | 
c2 BAe2 dcc2 B2dc B2BA  | 
w:  lan  *  *  gel  *  *  gi *  de  | 
A6=b=c' baag a4 gb | a4a4g2 f2=c'2 =b2a2  | \
w:  lim   SAZ  |  *  Yol la *  rı mız   | 
a2g2 g2f2 f2ef g4 fe | 
w:  ye *  şil *  len *  *  di    | 
d4a4g2 f2=c'2 =b2a2  | a2g2 g2f2 f2ef g4 fe | \
w:  *  Yol la *  rı mız   |  ye *  şil *  len *  *  di    | 
d4e2 f2g2 a2=f2 e2d2  | 
w:  *  Cey *  lan   | 
e2=f2 e2f2 a2g2 f2e2 dc | d4e2 =f2fe d2dc BAB2  | 
w:  cey *  *  *  lan   |  *  gi de lim  *  *  cey  | 
c6d2 cBAB c4 BA | A4e2 f2g2 a2=f2 e2d2  | \
w:  lan  *  cey *  *  *  lan    |  *  Yav ru  cey  | 
c2BA e2dc c2B2 dcB2 BA | 
w:  lan  *  *  gel  *  *  gi *  de  | 
A6 gfe3def ge=fd  | e4 A2gf e3d efge =fd | 
w:  lim   ARANAĞME  |   | 
e4A2 gfe3def gbag  | =fed2 cdef efed cdcB BA | 
w:   |   | 
A6 gfe3def ge=fd  | e4 A2gf e3d efge =fd | 
w:  lim   ARANAĞME  |   | 
e4A2 gfe3def gbag  | =fed2 cdef efed cdcB BA | 
w:   |   | 
A6 |
w:  SAZ  | 


